X:1
T:James Gibb editions
T:Psalm 143 (Becker) - Schütz
%%score [ ( 1 2 ) ( 3 4 ) ]
L:1/8
Q:1/4=98
M:2/2
K:F
V:1 treble nm="Soprano Alto"
V:2 treble 
V:3 bass nm="Tenor Bass"
V:4 bass 
V:1
"^Cornelius Becker\n(1561-1604)""^Psalm 143, SWV 248""^Heinrich Schütz\n(1585-1672)" F4 G2 A2 | %1
w: ~Herr, mein Ge-|
w: nach dei- ner|
 B2 c2 (d3 c | BA) G2 ^F4 | A4 B2 c2 | A2 B2 (A2 G2- |[M:2/2] G2 ^F2 G4 :| _e4 d2 c2 | =B4 B2 c2 | %8
w: bet er- hör *|* * in Gnad,|mein Fle- hen|laß doch fin\- *|* den statt,|||
w: Treu und wah\- *|* * rem Wort|ists recht, daß|mein Bitt werd *|* er- hort.|||
 A2 GA B4 | c4 B2 A2 | A4 A2 Bc | d2 B2 A2 G2- | G2) ^F2 G8 |] %13
w: |denn sollst ge-|schehn, so wird vor|dir kein Mensch *|* be- stehn.|
w: |||||
V:2
 D4 _E2 F2 | G2 A2 (D2 F2 | B,2) C2 D4 | ^F4 G2 G2 | F2 F2 (_E2 C2) |[M:2/2] D4 D4 :| G4 G2 G2 | %7
w: ||||||Ach Herr, geh|
 G4 G2 G2 | F2 DF F4 | F4 D2 F2 | E4 F2 DF | F2 F2 _E4 | D4 D8 |] %13
w: nicht mit dein'm|Knecht ins Ge- richt;|||||
V:3
 B,4 B,2 D2 | D2 F4 D2- | D2 G,2 A,4 | D4 D2 _E2 | C2 D2 (C2 G,2) |[M:2/2] A,4 =B,4 :| C4 D2 _E2 | %7
 D4 D2 _E2 | C2 B,C D4 | %9
"^3. Wenn ich in meinem großen Leid \ngedenke an die vorig Zeit,\nso laß ich mir die Werke dein \nund große Taten tröstlich sein;\nbreit aus zu dir \nmein Hände mit Begier,\nmein Seel zuhand \ndürstet nach dir, wie dürres Land." A,4 B,2 D2 | %10
"^5. Laß mich früh hören deine Gnad, \nnach dir mein Herz Verlangen hat,\nzeig mir den Weg, den ich soll gehen, \nauf dich soll mein Vertrauen stehn.\nIn aller Not \nhilf mir, du treuer Gott,\nerquicke mich \nwegen deins Namens gnädiglich." ^C4 D2 B,A, | %11
"^4. Herr Gott, erhör mich gnädiglich, \nverzeuch mit deiner Hülfe nicht;\ndenn sollt in Not ich länger stehn, \nso müßt zuletzt mein Geist vergehn.\nVerbirg doch nicht \nvor mir dein Angesicht,\nsonst werd ich gleich \ndem, der sich in sein Grab verschleicht." B,2 D2 (C3 B, | %12
 A,2) A,2 G,8 |] %13
V:4
 B,,4 _E,2 D,2 | G,2 F,2 (B,3 A, | G,F,) _E,2 D,4 | D,4 G,2 C,2 | F,2 B,,2 (C,2 _E,2) | %5
[M:2/2] D,4 G,,4 :| C,4 =B,,2 C,2 | G,4 G,2 C,2 | F,2 G,F, B,,4 | F,4 G,2 D,2 | A,4 D,2 G,F, | %11
 B,,2 B,,2 C,4 | D,4 G,,8 |] %13

